X:1
T:Stäming
T:W. Peterson-Berger (1867-1942)
T:Text: J. P. Jacobsen
T:Stemning
T:©CPDL Edition may be freely distributed, duplicated, performed and recorded PA Aglert
T:©CPDL Edition may be freely distributed, duplicated, performed and recorded PA Aglert
T:©CPDL Edition may be freely distributed, duplicated, performed and recorded PA Aglert
T:©CPDL Edition may be freely distributed, duplicated, performed and recorded PA Aglert
T:©CPDL Edition may be freely distributed, duplicated, performed and recorded PA Aglert
T:©CPDL Edition may be freely distributed, duplicated, performed and recorded PA Aglert
C:W. Peterson-Berger (1867-1942)
Z:©CPDL Edition may be freely distributed, duplicated, performed and recorded
Z:PA Aglert
%%score [ 1 2 3 4 ]
L:1/8
Q:1/4=120
M:6/8
K:Cmin
V:1 treble nm="S"
V:2 treble nm="A"
V:3 treble-8 nm="T"
V:4 bass nm="B"
V:1
"^Lento"!p! G3 G2 z |"^cresc." G3 G2 z | G>!<(!FG!<)! BGF |!>(! F3!>)! E2 E |!p! E3 E2 z | %5
w: Al- le,|al- le,|al- le de vox- en- de|skyg- ger har|væ- vet,|
"^cresc." =E3 E2 z |!<(! F>=EF A!<)!cA |!>(! G3-!>)! G2 z |!mp! e3- edc | =B3- Bcd | %10
w: væ- vet,|væ- vet sig sam- men til|en. _|En- * som på|him- * me- len|
!<(! c3!<)! B2 G | G3!>(! F2 F!>)! |!p! F3 E2 F | G3- G2!mf! B | F3!<(! E2 F | G3-!<)! G2 z | %16
w: ly- ser en|stjær- ne så|strå- len- de|ren, _ så|strå- len- de|ren. _|
!mp! e3- edc | =B3- Bcd |!<(! c3-!<)! B2 G | G3!>(! F3!>)! |!p! F3 E2 F | G3 B2!<(! G!<)! | %22
w: Sky- * er- ne|ha- * ve så|tung- * e|dröm- me,|bloms- ter- nes|öj- ne i|
!mf!!<(! c3- c2!<)! d |!>(! =B3!>)!!p! G3 |!p! c3- cBA | E2 E F2 ^F | G3 G2 G | G3 G3 | %28
w: dug- * gråd|svöm- me.|Un- * der- ligt|af- ten- vin- den|su- ser i|lin- den.|
!pp!!<(! ^F6- | G6!<)! |!pp! F6 |!>(! G6!>)! |] %32
w: c.b.ch.|_|||
V:2
!p! E3 E2 z |"^cresc." E3 E2 z | E>!<(!EE!<)! DDD |!>(! _D3!>)! D2 D |!p! C3 C2 z | %5
w: Al- le,|al- le,|al- le de vox- en- de|skyg- ger har|væ- vet,|
"^cresc." C3 C2 z |!<(! C>CC F!<)!FF |!>(! F3-!>)! F2 z |!p! E2 E E2 E | F>FF FFF | %10
w: væ- vet,|væ- vet sig sam- men til|en. _|En- som, en- som.|en- som på him- me- len|
!<(! G3 G2!<)! C | E3!>(! E2 E!>)! |!p! D3 C2 D | E3- E2!mf! E | D3!<(! C2 D!<)! | D3- D2 z | %16
w: ly- ser en|stjær- ne så|strå- len- de|ren, _ så|strå- len- de|ren. _|
!p! E>EE EEE | F2 F F2 F |!<(! G3-!<)! G2 C | E3!>(! E3!>)! |!p! D3 C2 D | E3 E2!<(! E!<)! | %22
w: Sky- er- ne ha- ve så|tung- e dröm- me,|tung- * e|dröm- me,|bloms- ter- nes|öj- ne i|
!mf!!<(! E3 F3!<)! |!>(! G3!>)!!p! G3 |!pp! C>CC C2 C | C3 C3 |!p!!<(! C>DE!<)!!>(! D2 =B,!>)! | %27
w: dug- gråd|svöm- me.|Un- der- ligt af- ten-|vin- den|su- ser i lin- den,|
!<(! C>DE!<)!!>(! D2!>)! =B, |!pp!!<(! C6-!<)! | E6 |!pp! C6 |!>(! E6!>)! |] %32
w: su- ser i lin- den.|c.b.ch.|_|||
V:3
!p! c3 c2 z |"^cresc." c3 c2 z | c>!<(!cc!<)! BBB |!>(! B3!>)! B2 B |!p! A3 A2 z | %5
w: Al- le,|al- le,|al- le de vox- en- de|skyg- ger har|væ- vet,|
"^cresc." B3 B2 z |!<(! A>GA c!<)!Ac |!>(! =B3-!>)! B2 z |!p! G2 G G2 G | G>GG GGG | %10
w: væ- vet,|væ- vet sig sam- men til|en. _|En- som, en- som.|en- som på him- me- len|
!<(! c3!<)! c2 B | B3!>(! =A2 A!>)! |!p! B3 B2 B | B3- B2!mf! B | B3!<(! e2 c!<)! | =B3- B2 z | %16
w: ly- ser en|stjær- ne så|strå- len- de|ren, _ så|strå- len- de|ren. _|
!p! G>GG GGG | G2 G G2 G |!<(! c3-!<)! c2 B | B3!>(! =A3!>)! |!p! B3 B2 B | B3 B2!<(! e!<)! | %22
w: Sky- er- ne ha- ve så|tung- e dröm- me,|tung- * e|dröm- me,|bloms- ter- nes|öj- ne i|
!mf!!<(! e3 d3!<)! |!>(! d3!>)!!p! G3 |!pp! E>EE E2 E | E3 E3 |!p!!<(! E>F!<)!G!>(! F2!>)! D | %27
w: dug- gråd|svöm- me.|Un- der- ligt af- ten-|vin- den|su- ser i lin- den,|
!<(! E>G!<)!c!>(! =B2!>)! G |!pp!!<(! A6-!<)! | G6 |!pp! A6 |!>(! G6!>)! |] %32
w: su- ser i lin- den.|c.b.ch.|_|||
V:4
!p! C3 C2 z |"^cresc." B,3 B,2 z | =A,>!<(!A,A,!<)! _A,B,A, |!>(! G,3!>)! G,2 G, |!p! A,3 A,2 z | %5
w: Al- le,|al- le,|al- le de vox- en- de|skyg- ger har|væ- vet,|
"^cresc." G,3 G,2 z |!<(! F,>F,F, E,!<)!E,E, |!>(! D,3-!>)! D,2 z |!p! C,2 C, C,2 C, | %9
w: væ- vet,|væ- vet sig sam- men til|en. _|En- som, en- som.|
 D,>D,D, D,D,D, |!<(! E,3!<)! =E,2 E, | F,3!>(! F,2!>)! F, |!p! B,3 B,2 B, | E,3- E,2!mf! G, | %14
w: en- som på him- me- len|ly- ser en|stjær- ne så|strå- len- de|ren, _ så|
 B,3!<(! C2 A,!<)! | G,3- G,2 z |!p! C,>C,C, C,C,C, | D,2 D, D,2 D, |!<(! E,3-!<)! =E,2 E, | %19
w: strå- len- de|ren. _|Sky- er- ne ha- ve så|tung- e dröm- me,|tung- * e|
 F,3!>(! F,3!>)! |!p! B,3 B,2 B, | E,3 G,2!<(! E,!<)! |!mf!!<(! A,3 A,3!<)! |!>(! G,3!>)!!p! G,,3 | %24
w: dröm- me,|bloms- ter- nes|öj- ne i|dug- gråd|svöm- me.|
!pp! A,,>A,,A,, A,,2 A,, | A,,3 A,,3 | G,,3 G,,2 G,, | G,,3 G,,3 |!pp!!<(! E,6-!<)! | C,6 | %30
w: Un- der- ligt af- ten-|vin- den|su- ser i|lin- den.|c.b.ch.|_|
!pp! E,6 |!>(! C,6!>)! |] %32
w: ||

